X:1
T:Title
%%score { ( 1 3 ) | ( 2 4 5 ) }
L:1/8
M:4/4
K:E
V:1 treble nm="Grand Piano"
V:3 treble 
V:2 bass 
V:4 bass 
V:5 bass 
V:1
 z4 z2[Q:1/4=94] B,B, | E>E EF G2 FE |[M:3/4] G>G G[FA] [GB]2 |[M:1/4] [Ge]>B | %4
[M:4/4] A<G E>G c<B G>G | [DF]6 [FA][EG] | [DF]>[DF] [DF][EG] [FA]2 [GB][FA] | %7
[M:3/4] G>G G[FA] [GB]2 |[M:1/4] [Ge]>B |[M:4/4] E<G c>B F<A [DG]>[DF] |[M:3/4] E6 | %11
[M:1/4] [Ec]>[Ec] |[M:4/4] [Ec]<[Ec][K:bass] C,>E, A,2[K:treble] [Ec]>[Ec] |[M:3/4] B<B B,>G, B,2 | %14
[M:1/4] [GB]>[FA] |[M:4/4] [FA]<G B>G F<E DE |[M:3/4] [B,DF]6 |[M:1/4] z2 |[M:4/4] z2 B>G A2 C>B, | %19
[M:3/4][K:bass] A,<F,[K:treble] [DF]>[FA] [EG]2 |[M:1/4] [Ge]>B, | %21
[M:19/16] z/ z/ z/ z/ z/ z/ z/ z/ z/ z/ z/ z/ z/ z D>D |[M:3/4] E6 |] %23
V:2
 z4 z2 [E,G,][E,G,] | [E,G,B,]>[E,G,B,] [E,G,B,][E,A,B,] [E,B,E]2 [E,A,B,][E,G,B,] | %2
[M:3/4] [E,B,E]>[E,B,E] [E,B,E][E,B,] [E,E]2 |[M:1/4] [E,B,]>[E,G,E] | %4
[M:4/4] [E,CE]<[E,B,E] [E,G,]>[E,B,E] [E,A,E]<[E,G,E] [E,B,E]>[E,B,E] | [B,,B,]6 [B,,B,][B,,B,] | %6
 [B,,B,]>[B,,B,] [B,,B,][B,,B,] [B,,B,]2 [B,,B,][B,,B,] | %7
[M:3/4] [E,B,E]>[E,B,E] [E,B,E][E,B,] [E,E]2 |[M:1/4] [E,B,]>[E,G,E] | %9
[M:4/4] [E,G,]<[E,B,E] [E,A,E]>[E,G,E] [B,D]<[B,D] [B,,B,]>[B,,A,] |[M:3/4] [E,G,]6 | %11
[M:1/4] [A,,A,]>[A,,A,] |[M:4/4] [A,,A,]<[A,,A,] z2 z2 [A,,A,]>[A,,A,] | %13
[M:3/4] [E,G,E]<[E,G,E] z2 z2 |[M:1/4] [E,E]>[E,B,] | %15
[M:4/4] [E,B,]<[E,B,E] [E,G,E]>[E,B,E] [E,A,B,]<[E,G,B,] [F,A,B,][E,G,B,] | %16
[M:3/4] B,,2 B,,>B,, B,,2 |[M:1/4] E,>G, |[M:4/4][K:treble] B,B, G>E F2 z2 | %19
[M:3/4] z2[K:bass] [B,,B,]>[B,,B,] [E,B,]2 |[M:1/4] [E,B,]3/2 z/ | %21
[M:19/16] z/ z/ z/ z [E,B,E]-<[E,B,E] z/ z/ z/ z/ z/ z/ z/ z/ z |[M:3/4] [E,G,B,]6 |] %23
V:3
 x8 | x8 |[M:3/4] x6 |[M:1/4] x2 |[M:4/4] x8 | x8 | x8 |[M:3/4] x6 |[M:1/4] x2 |[M:4/4] x8 | %10
[M:3/4] x6 |[M:1/4] x2 |[M:4/4] x2[K:bass] x4[K:treble] x2 |[M:3/4] x6 |[M:1/4] x2 |[M:4/4] x8 | %16
[M:3/4] x6 |[M:1/4] x2 |[M:4/4] x8 |[M:3/4][K:bass] x2[K:treble] x4 |[M:1/4] x2 | %21
[M:19/16] (7:8:18C/-C3/32B,3/2-B,/4-B,/32G-G3/16B,/-B,3/32C/-C3/32F3/2-F/4-F/32 z/ z3/32 z z3/16 | %22
[M:3/4] x6 |] %23
V:4
 x8 | x8 |[M:3/4] x6 |[M:1/4] x2 |[M:4/4] x8 | x8 | x8 |[M:3/4] x6 |[M:1/4] x2 |[M:4/4] x8 | %10
[M:3/4] x6 |[M:1/4] x2 |[M:4/4] x8 |[M:3/4] x6 |[M:1/4] x2 |[M:4/4] x8 |[M:3/4] x6 |[M:1/4] x2 | %18
[M:4/4][K:treble] x8 |[M:3/4] x2[K:bass] x4 |[M:1/4] x2 | %21
[M:19/16] z/ z/ z/ z/ z/ z/ z G,3/4 z/4 z/ z/ z/ z/ z/ z/ z/ z |[M:3/4] x6 |] %23
V:5
 x8 | x8 |[M:3/4] x6 |[M:1/4] x2 |[M:4/4] x8 | x8 | x8 |[M:3/4] x6 |[M:1/4] x2 |[M:4/4] x8 | %10
[M:3/4] x6 |[M:1/4] x2 |[M:4/4] x8 |[M:3/4] x6 |[M:1/4] x2 |[M:4/4] x8 |[M:3/4] x6 |[M:1/4] x2 | %18
[M:4/4][K:treble] x8 |[M:3/4] x2[K:bass] x4 |[M:1/4] x2 | %21
[M:19/16] z/ z/ z/ z/ z/ z/ z/ z A,/A,/-A,-<A,[B,,F,B,]>[B,,F,B,] |[M:3/4] x6 |] %23

